src/img/clients/murmansk.svg

<svg width="343" height="87" viewBox="0 0 343 87" fill="none" xmlns="http://www.w3.org/2000/svg">
<path d="M86.6 22.5V5.29995H90L94 17.5L94.9 20L95.8 17.2999L99.9 5.29995H102.9V22.5H100.8V8.09995L95.8 22.5H93.8L88.8 7.89995V22.5H86.6V22.5ZM114.5 5.29995H116.8L122.4 15.8L127.3 5.29995H129.6L123 18.7C122.2 20.4 121.5 21.4 121 22C120.5 22.5 119.8 22.7 118.8 22.7C118.2 22.7 117.5 22.5999 116.7 22.2999V20.2999C117.3 20.6999 117.9 20.9 118.6 20.9C119.1 20.9 119.6 20.7 120 20.4C120.4 20 120.9 19.1999 121.4 17.9L114.4 5.29995H114.5ZM141.1 22.5V5.29995H147.6C148.7 5.29995 149.6 5.29995 150.2 5.49995C151 5.59995 151.7 5.89995 152.3 6.29995C152.9 6.69995 153.3 7.29995 153.7 7.89995C154 8.69995 154.2 9.39995 154.2 10.3C154.2 11.7 153.7 13 152.8 14C151.8 15 150.2 15.5 147.8 15.5H143.4V22.5H141H141.1ZM143.4 13.5H147.8C149.3 13.5 150.3 13.2 150.9 12.7C151.223 12.4114 151.479 12.0565 151.652 11.6595C151.824 11.2624 151.909 10.8328 151.9 10.4C151.922 9.71676 151.711 9.04643 151.3 8.49995C150.9 7.99995 150.5 7.69995 149.9 7.49995L147.8 7.29995H143.4V13.5V13.5ZM166.4 22.5V5.29995H169.8L173.8 17.5L174.7 20L175.6 17.2999L179.6 5.29995H182.7V22.5H180.6V8.09995L175.6 22.5H173.6L168.6 7.89995V22.5H166.3H166.4ZM194.1 22.5L200.7 5.29995H203.2L210.2 22.5H207.6L205.6 17.2999H198.4L196.5 22.5H194.1ZM199.1 15.5H204.9L203.1 10.7C202.6 9.19995 202.1 8.09995 201.9 7.09995C201.7 8.19995 201.4 9.29995 200.9 10.4L199.1 15.4V15.5ZM221.7 22.5V5.29995H224V12.3H232.9V5.29995H235.2V22.5H232.9V14.4H223.9V22.5H221.7V22.5ZM260.8 16.5L263.1 17.1C262.718 18.7475 261.804 20.2235 260.5 21.2999C259.22 22.3084 257.629 22.8389 256 22.7999C254.1 22.7999 252.6 22.4 251.5 21.7C250.3 20.9 249.5 19.8 248.8 18.4C248.181 16.9045 247.88 15.297 247.914 13.679C247.949 12.061 248.318 10.4677 249 8.99995C249.666 7.71369 250.714 6.66553 252 5.99995C253.2 5.29995 254.6 4.99995 256.1 4.99995C257.659 4.89755 259.208 5.31998 260.5 6.19995C261.6 7.19995 262.5 8.29995 262.9 9.89995L260.7 10.5C260.3 9.19995 259.7 8.29995 258.9 7.69995C258.2 7.19995 257.2 6.89995 256.1 6.89995C254.7 6.89995 253.6 7.19995 252.8 7.89995C251.877 8.49155 251.175 9.36994 250.8 10.4C250.5 11.4 250.3 12.5 250.3 13.7C250.3 15.1 250.6 16.4 251 17.5C251.4 18.5 252 19.4 253 19.9C253.9 20.5 254.8 20.7 255.9 20.7C257.2 20.7 258.2 20.4 259.1 19.7C260.1 18.9 260.6 17.8 260.9 16.4L260.8 16.5ZM275.5 5.29995H277.8V12.8C278.8 12.8 279.6 12.6 280 12.2C280.4 11.8 281 10.9 281.6 9.29995L282.8 6.99995C283.1 6.49995 283.5 6.09995 284.1 5.79995C284.7 5.49995 285.3 5.29995 286 5.29995H287.4V7.29995C287.067 7.31012 286.733 7.31012 286.4 7.29995C285.7 7.29995 285.2 7.49995 284.9 7.79995C284.5 8.19995 284.1 8.89995 283.6 10.1C283.29 11.0729 282.816 11.9859 282.2 12.8C281.8 13.2 281.2 13.5 280.7 13.8C281.8 14 282.9 15 284 16.8L287.6 22.5H284.7L281.9 17.7999C281.1 16.4999 280.4 15.7 279.9 15.2C279.341 14.7311 278.63 14.4822 277.9 14.5V22.5H275.5V5.29995V5.29995ZM299.1 5.29995H301.1V19L310.3 5.39995H312.6V22.6H310.6V8.89995L301.4 22.5H299.1V5.29995V5.29995ZM326 5.29995H328V19L337.2 5.39995H339.5V22.6H337.5V8.89995L328.3 22.5H326V5.29995V5.29995ZM334.5 1.29995H336C335.8 2.29995 335.5 2.99995 334.9 3.49995C334.3 3.99995 333.5 4.29995 332.5 4.29995C331.5 4.29995 330.7 3.99995 330.1 3.49995C329.5 2.99995 329.1 2.19995 329.1 1.19995H330.5C330.5 1.79995 330.8 2.19995 331.1 2.39995C331.5 2.69995 331.9 2.79995 332.4 2.79995C333.1 2.79995 333.5 2.69995 333.9 2.39995C334.2 2.19995 334.4 1.79995 334.5 1.19995V1.29995ZM90.4 50.4V36.2H85.3V33.2999H99V36.2999H93.9V50.5H90.4V50.4ZM145.7 50.4H141.9L140.4 46.5H133.5L132.1 50.4H128.4L135.1 33.2H138.8L145.7 50.4V50.4ZM139.3 43.5999L136.9 37.2L134.6 43.5999H139.3V43.5999ZM178 50.4V33.2999H183.6C185.6 33.2999 187 33.3999 187.6 33.5999C188.6 33.7999 189.5 34.3999 190.2 35.2999C190.8 36.0999 191.2 37.2999 191.2 38.5999C191.2 39.5999 191 40.5999 190.6 41.2999C190.26 41.9282 189.79 42.4763 189.221 42.9075C188.652 43.3388 187.997 43.6431 187.3 43.7999L183.7 44H181.5V50.5H178V50.4ZM181.5 36.0999V41H183.4C184.31 41.0371 185.22 40.936 186.1 40.7C186.6 40.6 186.9 40.3 187.1 39.9C187.4 39.5 187.6 39.0999 187.6 38.5999C187.6 37.8999 187.4 37.4 187 37C186.7 36.6 186.2 36.3 185.6 36.2H181.5V36.0999ZM224.5 50.4V33.2999H228V40.0999H234.8V33.2999H238.2V50.5H234.8V43H228V50.5H224.5V50.4ZM272.4 33.2H275.9V40.0999H280.5C281.7 40.0999 282.8 40.2999 283.6 40.5999C284.6 40.8999 285.3 41.6 285.8 42.4C286.4 43.2 286.8 44.2 286.8 45.4C286.803 46.3758 286.521 47.3313 285.988 48.1487C285.455 48.9661 284.694 49.6096 283.8 50C283 50.3 281.9 50.4 280.5 50.4H272.4V33.2999V33.2ZM275.9 47.5H279.2L281.5 47.4C281.958 47.2701 282.362 46.9953 282.65 46.6166C282.939 46.238 283.096 45.776 283.1 45.2999C283.1 44.4999 282.9 43.9 282.3 43.5C281.8 43.2 280.8 43 279.3 43H276V47.5H275.9ZM288.7 33.2H292.2V50.4H288.7V33.2999V33.2ZM326.3 33.2H329.6V44.7L336.6 33.2H340V50.4H336.8V39.2999L329.8 50.5H326.3V33.2999V33.2ZM335.3 28.9H336.8C336.8 30 336.4 30.9 335.8 31.5C335.1 32.1 334.2 32.4 333.2 32.4C332.2 32.4 331.3 32.1 330.6 31.4C330 30.8 329.6 30 329.6 28.9H331.1C331.1 29.5 331.4 29.9 331.7 30.2C332.1 30.5 332.5 30.6 333.2 30.6C333.8 30.6 334.3 30.5 334.7 30.2C335 29.9 335.2 29.5 335.2 28.9H335.3ZM86.3 64.0999H88.3V70.4C89.1 70.4 89.7 70.2 90.1 69.9C90.4 69.5 90.9 68.7 91.4 67.4L92.4 65.4C92.6769 64.9796 93.0552 64.6357 93.5 64.4C94 64.2 94.5 64.0999 95.1 64.0999H96.2V65.7C95.9667 65.7059 95.7333 65.7059 95.5 65.7C94.9 65.7 94.5 65.9 94.1 66.2C93.6654 66.7378 93.3271 67.3468 93.1 68C92.6 69.2 92.2 70 91.9 70.3L90.7 71.1C91.7 71.3 92.5 72.1 93.4 73.6L96.4 78.4H94L91.6 74.5C91 73.5 90.4 72.7 90 72.3C89.5 71.9 89 71.7 88.3 71.7V78.4H86.3V64.1999V64.0999ZM118 71.4C118 69.1 118.6 67.2 119.9 65.9C121.2 64.5 122.9 63.9 124.9 63.9C126.2 63.9 127.3 64.1 128.4 64.8C129.4 65.4 130.3 66.3 130.8 67.4C131.4 68.5 131.7 69.8 131.7 71.3C131.7 72.7 131.4 74 130.7 75.2C130.18 76.2882 129.343 77.1942 128.3 77.8C127.224 78.3895 126.014 78.6902 124.787 78.6727C123.56 78.6552 122.359 78.32 121.3 77.7C120.2 77 119.3 76.1 118.8 75C118.257 73.8786 117.983 72.6459 118 71.4V71.4ZM120 71.4C120 73.2 120.4 74.5 121.3 75.5C122.3 76.5 123.4 77 124.8 77C126.2 77 127.4 76.5 128.3 75.5C129.285 74.3296 129.786 72.8272 129.7 71.3C129.7 70.1 129.5 69.1 129.1 68.2C128.7 67.3 128.1 66.7 127.4 66.2C126.6 65.7 125.8 65.5 124.8 65.5C123.5 65.5 122.3 65.9 121.4 66.8C120.4 67.8 119.9 69.3 119.9 71.5L120 71.4ZM154.9 78.4V64.1999H157.7L161.1 74.3L161.8 76.4L162.6 74.1L166 64.0999H168.5V78.5H166.7V66.5L162.5 78.5H160.8L156.7 66.3V78.5H154.9V78.4ZM192.5 64.0999H201.8V65.8H194.4V70.2H197.8C199 70.2 200.1 70.3 200.8 70.5C201.5 70.8 202.1 71.2 202.6 71.9C203 72.6 203.3 73.4 203.3 74.2C203.3 75 203.1 75.6 202.8 76.2C202.5 76.9 202 77.4 201.3 77.8C200.7 78.2 199.6 78.4 198.1 78.4H192.5V64.1999V64.0999ZM194.4 76.8H198.2C199.2 76.8 199.9 76.6 200.5 76.2C201 75.7 201.2 75.2 201.2 74.2C201.2 73.7 201.1 73.2 200.8 72.8C200.513 72.3933 200.086 72.1081 199.6 72L196.9 71.8H194.4V76.8V76.8ZM226.4 64.0999H228.1V75.4L235.7 64.0999H237.6V78.4H235.9V67.2L228.2 78.5H226.3V64.1999L226.4 64.0999ZM261.5 78.4V64.1999H263.5V70H270.9V64H272.8V78.4H270.8V71.7H263.4V78.4H261.5V78.4ZM295.2 78.4L300.7 64.0999H302.7L308.6 78.4H306.4L304.7 74.1H298.7L297.2 78.4H295.2ZM299.3 72.5H304.1L302.7 68.5C302.2 67.4 301.9 66.4 301.7 65.5L300.9 68.3L299.3 72.5ZM333 78.4V65.9H328.2V64.1999H339.6V65.9H334.9V78.5H332.9L333 78.4Z" fill="#CAD5DD"/>
<path d="M72.8 1.5H2.79999C2.2477 1.5 1.79999 1.94772 1.79999 2.5V76.5C1.79999 77.0523 2.2477 77.5 2.79999 77.5H72.8C73.3523 77.5 73.8 77.0523 73.8 76.5V2.5C73.8 1.94772 73.3523 1.5 72.8 1.5Z" fill="#E3E3E3" stroke="#CAD5DD" stroke-width="2"/>
<path d="M5.79999 7.5C5.79999 6.4 6.69999 5.5 7.79999 5.5H67.8C68.3304 5.5 68.8391 5.71071 69.2142 6.08579C69.5893 6.46086 69.8 6.96957 69.8 7.5V59C69.792 59.4371 69.641 59.8596 69.3701 60.2027C69.0992 60.5459 68.7233 60.7908 68.3 60.9C62.7 62.2 42.3 66.3 27.3 59C22.1711 56.5109 17.613 52.987 13.9128 48.65C10.2126 44.313 7.45034 39.2569 5.79999 33.8V7.5Z" fill="#CAD5DD"/>
<path d="M84.8 57.5H342.8" stroke="#CAD5DD" stroke-width="2"/>
<path d="M49.8 57C60.0173 57 68.3 48.7173 68.3 38.5C68.3 28.2827 60.0173 20 49.8 20C39.5827 20 31.3 28.2827 31.3 38.5C31.3 48.7173 39.5827 57 49.8 57Z" stroke="url(#paint0_linear_4258_10174)" stroke-width="3"/>
<path d="M68.3 38C68.3 49.9 56.3 60 40.8 60C25.3 60 13.3 49.9 13.3 38C13.3 26.1 25.3 16 40.8 16C56.3 16 68.3 26.1 68.3 38Z" stroke="url(#paint1_linear_4258_10174)" stroke-width="3"/>
<path d="M49.8 51C56.7035 51 62.3 45.4036 62.3 38.5C62.3 31.5964 56.7035 26 49.8 26C42.8964 26 37.3 31.5964 37.3 38.5C37.3 45.4036 42.8964 51 49.8 51Z" stroke="url(#paint2_linear_4258_10174)" stroke-width="3"/>
<defs>
<linearGradient id="paint0_linear_4258_10174" x1="49.8" y1="18.5" x2="49.8" y2="58.5" gradientUnits="userSpaceOnUse">
<stop stop-color="white"/>
<stop offset="0.3" stop-color="#CAD5DD" stop-opacity="0.3"/>
<stop offset="0.8" stop-color="#CAD5DD" stop-opacity="0.5"/>
<stop offset="1" stop-color="white"/>
</linearGradient>
<linearGradient id="paint1_linear_4258_10174" x1="40.8" y1="14.5" x2="40.8" y2="63.5" gradientUnits="userSpaceOnUse">
<stop offset="0.3" stop-color="#CAD5DD" stop-opacity="0.3"/>
<stop offset="0.8" stop-color="#CAD5DD" stop-opacity="0.5"/>
<stop offset="1" stop-color="white"/>
</linearGradient>
<linearGradient id="paint2_linear_4258_10174" x1="49.8" y1="24.5" x2="49.8" y2="52.5" gradientUnits="userSpaceOnUse">
<stop stop-color="white"/>
<stop offset="0.3" stop-color="#CAD5DD" stop-opacity="0.3"/>
<stop offset="0.8" stop-color="#CAD5DD" stop-opacity="0.5"/>
<stop offset="1" stop-color="white"/>
</linearGradient>
</defs>
</svg>

<svg width="343" height="87" fill="none" xmlns="http://www.w3.org/2000/svg"><path d="M86.6 22.5V5.3H90l4 12.2.9 2.5.9-2.7 4.1-12h3v17.2h-2.1V8.1l-5 14.4h-2l-5-14.6v14.6h-2.2Zm27.9-17.2h2.3l5.6 10.5 4.9-10.5h2.3L123 18.7c-.8 1.7-1.5 2.7-2 3.3-.5.5-1.2.7-2.2.7-.6 0-1.3-.1-2.1-.4v-2c.6.4 1.2.6 1.9.6.5 0 1-.2 1.4-.5.4-.4.9-1.2 1.4-2.5l-7-12.6Zm26.6 17.2V5.3h6.5c1.1 0 2 0 2.6.2.8.1 1.5.4 2.1.8.6.4 1 1 1.4 1.6.3.8.5 1.5.5 2.4 0 1.4-.5 2.7-1.4 3.7-1 1-2.6 1.5-5 1.5h-4.4v7H141Zm2.3-9h4.4c1.5 0 2.5-.3 3.1-.8a3 3 0 0 0 1-2.3 3 3 0 0 0-.6-1.9c-.4-.5-.8-.8-1.4-1l-2.1-.2h-4.4v6.2Zm23 9V5.3h3.4l4 12.2.9 2.5.9-2.7 4-12h3.1v17.2h-2.1V8.1l-5 14.4h-2l-5-14.6v14.6h-2.3Zm27.7 0 6.6-17.2h2.5l7 17.2h-2.6l-2-5.2h-7.2l-1.9 5.2h-2.4Zm5-7h5.8l-1.8-4.8c-.5-1.5-1-2.6-1.2-3.6-.2 1.1-.5 2.2-1 3.3l-1.8 5Zm22.6 7V5.3h2.3v7h8.9v-7h2.3v17.2h-2.3v-8.1h-9v8.1h-2.2Zm39.1-6 2.3.6a7.7 7.7 0 0 1-2.6 4.2 7 7 0 0 1-4.5 1.5c-1.9 0-3.4-.4-4.5-1.1-1.2-.8-2-1.9-2.7-3.3A11.7 11.7 0 0 1 249 9a7 7 0 0 1 3-3c1.2-.7 2.6-1 4.1-1a7 7 0 0 1 4.4 1.2c1.1 1 2 2.1 2.4 3.7l-2.2.6c-.4-1.3-1-2.2-1.8-2.8-.7-.5-1.7-.8-2.8-.8-1.4 0-2.5.3-3.3 1a5 5 0 0 0-2 2.5c-.3 1-.5 2.1-.5 3.3 0 1.4.3 2.7.7 3.8.4 1 1 1.9 2 2.4.9.6 1.8.8 2.9.8 1.3 0 2.3-.3 3.2-1 1-.8 1.5-1.9 1.8-3.3Zm14.7-11.2h2.3v7.5c1 0 1.8-.2 2.2-.6.4-.4 1-1.3 1.6-2.9l1.2-2.3c.3-.5.7-.9 1.3-1.2.6-.3 1.2-.5 1.9-.5h1.4v2a16.4 16.4 0 0 1-1 0c-.7 0-1.2.2-1.5.5-.4.4-.8 1.1-1.3 2.3a9 9 0 0 1-1.4 2.7c-.4.4-1 .7-1.5 1 1.1.2 2.2 1.2 3.3 3l3.6 5.7h-2.9l-2.8-4.7c-.8-1.3-1.5-2.1-2-2.6a3 3 0 0 0-2-.7v8h-2.4V5.3Zm23.6 0h2V19l9.2-13.6h2.3v17.2h-2V8.9l-9.2 13.6h-2.3V5.3Zm26.9 0h2V19l9.2-13.6h2.3v17.2h-2V8.9l-9.2 13.6H326V5.3Zm8.5-4h1.5c-.2 1-.5 1.7-1.1 2.2-.6.5-1.4.8-2.4.8s-1.8-.3-2.4-.8c-.6-.5-1-1.3-1-2.3h1.4c0 .6.3 1 .6 1.2.4.3.8.4 1.3.4.7 0 1.1-.1 1.5-.4.3-.2.5-.6.6-1.2ZM90.4 50.4V36.2h-5.1v-2.9H99v3h-5.1v14.2h-3.5Zm55.3 0h-3.8l-1.5-3.9h-6.9l-1.4 3.9h-3.7l6.7-17.2h3.7l6.9 17.2Zm-6.4-6.8-2.4-6.4-2.3 6.4h4.7Zm38.7 6.8V33.3h5.6c2 0 3.4.1 4 .3 1 .2 1.9.8 2.6 1.7.6.8 1 2 1 3.3 0 1-.2 2-.6 2.7a5 5 0 0 1-3.3 2.5l-3.6.2h-2.2v6.5H178Zm3.5-14.3v4.9h1.9a9 9 0 0 0 2.7-.3c.5-.1.8-.4 1-.8.3-.4.5-.8.5-1.3 0-.7-.2-1.2-.6-1.6-.3-.4-.8-.7-1.4-.8h-4.1Zm43 14.3V33.3h3.5v6.8h6.8v-6.8h3.4v17.2h-3.4V43H228v7.5h-3.5Zm47.9-17.2h3.5v6.9h4.6c1.2 0 2.3.2 3.1.5 1 .3 1.7 1 2.2 1.8.6.8 1 1.8 1 3a5 5 0 0 1-3 4.6c-.8.3-1.9.4-3.3.4h-8.1V33.3Zm3.5 14.3h3.3l2.3-.1a2.2 2.2 0 0 0 1.6-2.1c0-.8-.2-1.4-.8-1.8-.5-.3-1.5-.5-3-.5H276v4.5Zm12.8-14.3h3.5v17.2h-3.5V33.3Zm37.6 0h3.3v11.5l7-11.5h3.4v17.2h-3.2V39.3l-7 11.2h-3.5V33.3Zm9-4.3h1.5c0 1.1-.4 2-1 2.6-.7.6-1.6.9-2.6.9s-1.9-.3-2.6-1c-.6-.6-1-1.4-1-2.5h1.5c0 .6.3 1 .6 1.3.4.3.8.4 1.5.4.6 0 1.1-.1 1.5-.4.3-.3.5-.7.5-1.3Zm-249 35.2h2v6.3c.8 0 1.4-.2 1.8-.5.3-.4.8-1.2 1.3-2.5l1-2a3 3 0 0 1 1.1-1c.5-.2 1-.3 1.6-.3h1.1v1.6a13.7 13.7 0 0 1-.7 0c-.6 0-1 .2-1.4.5a6 6 0 0 0-1 1.8c-.5 1.2-.9 2-1.2 2.3l-1.2.8c1 .2 1.8 1 2.7 2.5l3 4.8H94l-2.4-3.9c-.6-1-1.2-1.8-1.6-2.2-.5-.4-1-.6-1.7-.6v6.7h-2V64.2Zm31.7 7.3c0-2.3.6-4.2 1.9-5.5 1.3-1.4 3-2 5-2 1.3 0 2.4.2 3.5.9 1 .6 1.9 1.5 2.4 2.6.6 1.1.9 2.4.9 3.9 0 1.4-.3 2.7-1 3.9a6 6 0 0 1-2.4 2.6 7.1 7.1 0 0 1-7-.1c-1.1-.7-2-1.6-2.5-2.7a8 8 0 0 1-.8-3.6Zm2 0c0 1.8.4 3.1 1.3 4.1 1 1 2.1 1.5 3.5 1.5s2.6-.5 3.5-1.5a6 6 0 0 0 1.4-4.2c0-1.2-.2-2.2-.6-3.1-.4-.9-1-1.5-1.7-2-.8-.5-1.6-.7-2.6-.7-1.3 0-2.5.4-3.4 1.3-1 1-1.5 2.5-1.5 4.7Zm34.9 7V64.2h2.8l3.4 10.1.7 2.1.8-2.3 3.4-10h2.5v14.4h-1.8v-12l-4.2 12h-1.7l-4.1-12.2v12.2h-1.8Zm37.6-14.3h9.3v1.7h-7.4v4.4h3.4c1.2 0 2.3.1 3 .3.7.3 1.3.7 1.8 1.4.4.7.7 1.5.7 2.3 0 .8-.2 1.4-.5 2-.3.7-.8 1.2-1.5 1.6-.6.4-1.7.6-3.2.6h-5.6V64.2Zm1.9 12.7h3.8c1 0 1.7-.2 2.3-.6.5-.5.7-1 .7-2 0-.5-.1-1-.4-1.4a2 2 0 0 0-1.2-.8l-2.7-.2h-2.5v5Zm32-12.7h1.7v11.3l7.6-11.3h1.9v14.3h-1.7V67.2l-7.7 11.3h-1.9V64.2Zm35.1 14.3V64.2h2V70h7.4v-6h1.9v14.4h-2v-6.7h-7.4v6.7h-1.9Zm33.7 0 5.5-14.3h2l5.9 14.3h-2.2l-1.7-4.3h-6l-1.5 4.3h-2Zm4.1-5.9h4.8l-1.4-4c-.5-1.1-.8-2.1-1-3l-.8 2.8-1.6 4.2Zm33.7 5.9V65.9h-4.8v-1.7h11.4v1.7h-4.7v12.6h-2Z" fill="#566896"/><rect x="1.8" y="1.5" width="72" height="76" rx="1" fill="#E3E3E3" stroke="#4F5C7E" stroke-width="2"/><path d="M5.8 7.5c0-1.1.9-2 2-2h60a2 2 0 0 1 2 2V59a2 2 0 0 1-1.5 1.9c-5.6 1.3-26 5.4-41-1.9A41.3 41.3 0 0 1 5.8 33.8V7.5Z" fill="#566896"/><path stroke="#566896" stroke-width="2" d="M84.8 57.5h258"/><circle cx="49.8" cy="38.5" r="18.5" stroke="url(#a)" stroke-width="3"/><path d="M68.3 38c0 11.9-12 22-27.5 22S13.3 49.9 13.3 38s12-22 27.5-22 27.5 10.1 27.5 22Z" stroke="url(#b)" stroke-width="3"/><circle cx="49.8" cy="38.5" r="12.5" stroke="url(#c)" stroke-width="3"/><defs><linearGradient id="a" x1="49.8" y1="18.5" x2="49.8" y2="58.5" gradientUnits="userSpaceOnUse"><stop stop-color="#fff"/><stop offset=".3" stop-color="#566896" stop-opacity=".3"/><stop offset=".8" stop-color="#566896" stop-opacity=".5"/><stop offset="1" stop-color="#fff"/></linearGradient><linearGradient id="b" x1="40.8" y1="14.5" x2="40.8" y2="63.5" gradientUnits="userSpaceOnUse"><stop offset=".3" stop-color="#566896" stop-opacity=".3"/><stop offset=".8" stop-color="#566896" stop-opacity=".5"/><stop offset="1" stop-color="#fff"/></linearGradient><linearGradient id="c" x1="49.8" y1="24.5" x2="49.8" y2="52.5" gradientUnits="userSpaceOnUse"><stop stop-color="#fff"/><stop offset=".3" stop-color="#566896" stop-opacity=".3"/><stop offset=".8" stop-color="#566896" stop-opacity=".5"/><stop offset="1" stop-color="#fff"/></linearGradient></defs></svg>
